X:35
T:Del Caros Fancy. LIT.035
M:2/4
Q:1/4=100
L:1/16
B:Wm. Litten MS, 1802
Z:Village Music Project 2017 Anne Wride
K:C
gf | e2 ef d2 de | cB AB c2d2 | ec fd ge af | dc de d2 gf |
e2 ef d2 de | cB cd c2 Gc | BA fd c2B2 | c6 :|
|: G2 | eg fd G2 df | e2c2 c2 eg | f2d2 B2 df | e4d4 |
f2f2 g2g2 | f2f2 g2a2 | ec' gf g2 fg | e2c2 c2 :|

